icons/repo-forked-16.svg

<svg xmlns="http://www.w3.org/2000/svg" width="16" height="16" viewBox="0 0 16 16"><path d="M5 5.372v.878c0 .414.336.75.75.75h4.5a.75.75 0 00.75-.75v-.878a2.25 2.25 0 111.5 0v.878a2.25 2.25 0 01-2.25 2.25h-1.5v2.128a2.251 2.251 0 11-1.5 0V8.5h-1.5A2.25 2.25 0 013.5 6.25v-.878a2.25 2.25 0 111.5 0zM5 3.25a.75.75 0 10-1.5 0 .75.75 0 001.5 0zm6.75.75a.75.75 0 100-1.5.75.75 0 000 1.5zm-3 8.75a.75.75 0 10-1.5 0 .75.75 0 001.5 0z"/></svg>

<svg xmlns="http://www.w3.org/2000/svg" width="16" height="16" viewBox="0 0 16 16">
  <defs/>
  <path d="M5,5.372 L5,6.25 C5,6.664 5.336,7 5.75,7 L10.25,7 C10.664,7 11,6.664 11,6.25 L11,5.372 C9.967,5.007 9.347,3.95 9.532,2.87 C9.718,1.79 10.654,1.001 11.75,1.001 C12.846,1.001 13.782,1.79 13.968,2.87 C14.153,3.95 13.533,5.007 12.5,5.372 L12.5,6.25 C12.5,7.493 11.493,8.5 10.25,8.5 L8.75,8.5 L8.75,10.628 C9.784,10.993 10.404,12.05 10.219,13.131 C10.033,14.211 9.096,15.001 8,15.001 C6.904,15.001 5.967,14.211 5.781,13.131 C5.596,12.05 6.216,10.993 7.25,10.628 L7.25,8.5 L5.75,8.5 C4.507,8.5 3.5,7.493 3.5,6.25 L3.5,5.372 C2.467,5.007 1.847,3.95 2.032,2.87 C2.218,1.79 3.154,1.001 4.25,1.001 C5.346,1.001 6.282,1.79 6.468,2.87 C6.653,3.95 6.033,5.007 5,5.372 Z M5,3.25 C5,2.836 4.664,2.5 4.25,2.5 C3.836,2.5 3.5,2.836 3.5,3.25 C3.5,3.664 3.836,4 4.25,4 C4.664,4 5,3.664 5,3.25 Z M11.75,4 C12.164,4 12.5,3.664 12.5,3.25 C12.5,2.836 12.164,2.5 11.75,2.5 C11.336,2.5 11,2.836 11,3.25 C11,3.664 11.336,4 11.75,4 Z M8.75,12.75 C8.75,12.336 8.414,12 8,12 C7.586,12 7.25,12.336 7.25,12.75 C7.25,13.164 7.586,13.5 8,13.5 C8.414,13.5 8.75,13.164 8.75,12.75 Z"/>
</svg>
